src/Assets/Icons/BlogSingleScreen/quotationLeft.svg

<svg width="38" height="32" viewBox="0 0 38 32" fill="none" xmlns="http://www.w3.org/2000/svg">
<path d="M17.5686 19.1429V27.7143C17.5686 28.9048 17.152 29.9167 16.3186 30.75C15.4853 31.5833 14.4734 32 13.2829 32H4.7115C3.52102 32 2.50911 31.5833 1.67578 30.75C0.842448 29.9167 0.425781 28.9048 0.425781 27.7143V12C0.425781 10.4524 0.7234 8.97917 1.31864 7.58036C1.92876 6.16667 2.74721 4.94643 3.774 3.91964C4.80078 2.89286 6.01358 2.08184 7.41239 1.48661C8.82608 0.876487 10.3067 0.571427 11.8544 0.571427H13.2829C13.6698 0.571427 14.0047 0.712796 14.2874 0.995535C14.5701 1.27827 14.7115 1.61309 14.7115 2V4.85714C14.7115 5.24405 14.5701 5.57887 14.2874 5.86161C14.0047 6.14434 13.6698 6.28571 13.2829 6.28571H11.8544C10.277 6.28571 8.93025 6.84375 7.81417 7.95982C6.6981 9.07589 6.14007 10.4226 6.14007 12V12.7143C6.14007 13.3095 6.3484 13.8155 6.76507 14.2321C7.18173 14.6488 7.68769 14.8571 8.28292 14.8571H13.2829C14.4734 14.8571 15.4853 15.2738 16.3186 16.1071C17.152 16.9405 17.5686 17.9524 17.5686 19.1429ZM37.5686 19.1429V27.7143C37.5686 28.9048 37.152 29.9167 36.3186 30.75C35.4853 31.5833 34.4734 32 33.2829 32H24.7115C23.521 32 22.5091 31.5833 21.6758 30.75C20.8424 29.9167 20.4258 28.9048 20.4258 27.7143V12C20.4258 10.4524 20.7234 8.97917 21.3186 7.58036C21.9288 6.16667 22.7472 4.94643 23.774 3.91964C24.8008 2.89286 26.0136 2.08184 27.4124 1.48661C28.8261 0.876487 30.3067 0.571427 31.8544 0.571427H33.2829C33.6698 0.571427 34.0047 0.712796 34.2874 0.995535C34.5701 1.27827 34.7115 1.61309 34.7115 2V4.85714C34.7115 5.24405 34.5701 5.57887 34.2874 5.86161C34.0047 6.14434 33.6698 6.28571 33.2829 6.28571H31.8544C30.277 6.28571 28.9302 6.84375 27.8142 7.95982C26.6981 9.07589 26.1401 10.4226 26.1401 12V12.7143C26.1401 13.3095 26.3484 13.8155 26.7651 14.2321C27.1817 14.6488 27.6877 14.8571 28.2829 14.8571H33.2829C34.4734 14.8571 35.4853 15.2738 36.3186 16.1071C37.152 16.9405 37.5686 17.9524 37.5686 19.1429Z" fill="#DDE7FD"/>
</svg>

<svg xmlns="http://www.w3.org/2000/svg" width="38" height="32" fill="none"><path fill="#DDE7FD" d="M17.569 19.143v8.571q0 1.786-1.25 3.036T13.283 32H4.712q-1.786 0-3.036-1.25t-1.25-3.036V12q0-2.321.893-4.42.915-2.12 2.455-3.66a11.4 11.4 0 0 1 3.638-2.433A11.1 11.1 0 0 1 11.854.57h1.429q.58 0 1.004.425.424.423.424 1.004v2.857q.001.58-.424 1.005a1.37 1.37 0 0 1-1.004.424h-1.429q-2.366 0-4.04 1.674T6.14 12v.714q0 .893.625 1.518t1.518.625h5q1.785 0 3.036 1.25 1.25 1.25 1.25 3.036m20 0v8.571q0 1.786-1.25 3.036T33.283 32h-8.571q-1.786 0-3.036-1.25t-1.25-3.036V12q0-2.321.893-4.42.915-2.12 2.455-3.66a11.4 11.4 0 0 1 3.638-2.433A11.1 11.1 0 0 1 31.854.57h1.429q.58 0 1.004.425.425.423.425 1.004v2.857q0 .58-.425 1.005a1.37 1.37 0 0 1-1.004.424h-1.429q-2.366 0-4.04 1.674T26.14 12v.714q0 .893.625 1.518t1.518.625h5q1.785 0 3.036 1.25 1.25 1.25 1.25 3.036"/></svg>
